icons/line/sound-off.svg

<svg width="24" height="24" viewBox="0 0 24 24" fill="none" xmlns="http://www.w3.org/2000/svg">
<path fill-rule="evenodd" clip-rule="evenodd" d="M13 4.70325C13 2.84644 10.6899 1.99188 9.48149 3.40167L5.83939 7.65079C5.6494 7.87243 5.37206 8 5.08013 8H5C3.34315 8 2 9.34314 2 11V13C2 14.6569 3.34315 16 5 16H5.08013C5.37206 16 5.6494 16.1276 5.83939 16.3492L9.48149 20.5983C10.6899 22.0081 13 21.1536 13 19.2967V4.70325ZM7.3579 8.95237L11 4.70325V19.2967L7.3579 15.0476C6.78795 14.3827 5.9559 14 5.08013 14H5C4.44772 14 4 13.5523 4 13V11C4 10.4477 4.44772 10 5 10H5.08013C5.9559 10 6.78795 9.61731 7.3579 8.95237ZM17.7071 9.29289C17.3166 8.90237 16.6834 8.90237 16.2929 9.29289C15.9024 9.68341 15.9024 10.3166 16.2929 10.7071L17.5858 12L16.2929 13.2929C15.9024 13.6834 15.9024 14.3166 16.2929 14.7071C16.6834 15.0976 17.3166 15.0976 17.7071 14.7071L19 13.4142L20.2929 14.7071C20.6834 15.0976 21.3166 15.0976 21.7071 14.7071C22.0976 14.3166 22.0976 13.6834 21.7071 13.2929L20.4142 12L21.7071 10.7071C22.0976 10.3166 22.0976 9.68341 21.7071 9.29289C21.3166 8.90237 20.6834 8.90237 20.2929 9.29289L19 10.5858L17.7071 9.29289Z" fill="currentColor"/>
</svg>

<svg width="24" height="24" fill="none" xmlns="http://www.w3.org/2000/svg"><path fill-rule="evenodd" clip-rule="evenodd" d="M13 4.703c0-1.857-2.31-2.711-3.519-1.301L5.84 7.65A1 1 0 015.08 8H5a3 3 0 00-3 3v2a3 3 0 003 3h.08a1 1 0 01.76.35l3.641 4.248c1.209 1.41 3.519.556 3.519-1.301V4.703zm-5.642 4.25L11 4.702v14.594l-3.642-4.25A3 3 0 005.08 14H5a1 1 0 01-1-1v-2a1 1 0 011-1h.08a3 3 0 002.278-1.048zm10.35.34a1 1 0 10-1.415 1.414L17.586 12l-1.293 1.293a1 1 0 001.414 1.414L19 13.414l1.293 1.293a1 1 0 001.414-1.414L20.414 12l1.293-1.293a1 1 0 00-1.414-1.414L19 10.586l-1.293-1.293z" fill="currentColor"/></svg>
